img/logo.svg

<svg fill="none" height="35" viewBox="0 0 163 35" width="163" xmlns="http://www.w3.org/2000/svg" xmlns:xlink="http://www.w3.org/1999/xlink"><clipPath id="a"><path d="m0 0h163v35h-163z"/></clipPath><g clip-path="url(#a)"><path clip-rule="evenodd" d="m-.151001.701993v33.600007h13.532001c2.1814.0533 4.3499-.348 6.3677-1.1785 2.0178-.8306 3.8405-2.0721 5.3523-3.6455 1.5496-1.5773 2.7655-3.4507 3.5751-5.5083.8096-2.0577 1.1963-4.2573 1.1369-6.4677.0594-2.2104-.3273-4.41-1.1369-6.4677-.8096-2.05761-2.0255-3.931-3.5751-5.50831-1.5119-1.57329-3.3347-2.81469-5.3524-3.6452-2.0178-.83051-4.1863-1.231956-6.3676-1.178797zm7.733001 26.208007v-18.81901h5.8c1.2025-.0479 2.4018.15576 3.521.59796 1.1193.4422 2.1339 1.1132 2.979 1.97005.8484.9176 1.5055 1.9951 1.9329 3.1695.4273 1.1744.6164 2.4222.5561 3.6705.0603 1.2483-.1287 2.4961-.5561 3.6705-.4273 1.1744-1.0844 2.2519-1.9329 3.1695-.8449.857-1.8595 1.5282-2.9788 1.9704s-2.3187.6457-3.5212.5976h-5.8zm34.8-5.952h12.082v-7.3h-12.086v-5.56701h13.291v-7.388997h-21.024v33.600007h21.265v-7.392h-13.532v-5.952zm36.343 13.344 11.019-33.600007h-8.458l-7.491 24.720007-7.491-24.720007h-8.457l11.019 33.600007zm14.4 0h7.733v-33.600007h-7.733zm38.615-1.416c2.493-1.312 4.581-3.2784 6.041-5.688l-6.67-3.84c-.73 1.301-1.832 2.3541-3.165 3.024-1.441.7442-3.043 1.122-4.664 1.1-1.32.0629-2.639-.1477-3.874-.6185s-2.36-1.1917-3.303-2.1175c-.91-.9669-1.616-2.1067-2.077-3.3518-.46-1.245-.666-2.57-.605-3.8962-.061-1.3262.145-2.6512.605-3.8963.461-1.245 1.167-2.3849 2.077-3.3517.943-.92578 2.068-1.64667 3.303-2.11748 1.235-.47082 2.554-.68139 3.874-.61853 1.611-.02301 3.204.34773 4.639 1.08 1.342.67781 2.452 1.73861 3.19 3.04801l6.67-3.84001c-1.487-2.40453-3.59-4.36821-6.09-5.688-2.582-1.393091-5.475-2.11130654-8.409-2.0879967-9.779-.2720003-17.797 7.6909967-17.591 17.4720067-.208 9.781 7.809 17.747 17.588 17.476 2.95.0272 5.859-.691 8.458-2.088zm17.881-11.928h12.082v-7.3h-12.085v-5.56701h13.29v-7.388997h-21.023v33.600007h21.265v-7.392h-13.532v-5.952z" fill="#000" fill-rule="evenodd"/></g></svg>

<svg width="163" height="35" viewBox="0 0 163 35" fill="none" xmlns="http://www.w3.org/2000/svg">
<g clip-path="url(#clip0)">
<path fill-rule="evenodd" clip-rule="evenodd" d="M-0.151001 0.701993V34.302H13.381C15.5624 34.3553 17.7309 33.954 19.7487 33.1235C21.7665 32.2929 23.5892 31.0514 25.101 29.478C26.6506 27.9007 27.8665 26.0273 28.6761 23.9697C29.4857 21.912 29.8724 19.7124 29.813 17.502C29.8724 15.2916 29.4857 13.092 28.6761 11.0343C27.8665 8.97669 26.6506 7.1033 25.101 5.52599C23.5891 3.9527 21.7663 2.7113 19.7486 1.88079C17.7308 1.05028 15.5623 0.648834 13.381 0.701993H-0.151001ZM7.582 26.91V8.09099H13.382C14.5845 8.04309 15.7838 8.24675 16.903 8.68895C18.0223 9.13115 19.0369 9.80215 19.882 10.659C20.7304 11.5766 21.3875 12.6541 21.8149 13.8285C22.2422 15.0029 22.4313 16.2507 22.371 17.499C22.4313 18.7473 22.2423 19.9951 21.8149 21.1695C21.3876 22.3439 20.7305 23.4214 19.882 24.339C19.0371 25.196 18.0225 25.8672 16.9032 26.3094C15.7839 26.7516 14.5845 26.9551 13.382 26.907H7.582V26.91ZM42.382 20.958H54.464V13.658H42.378V8.09099H55.669V0.701993H34.645V34.302H55.91V26.91H42.378V20.958H42.382ZM78.725 34.302L89.744 0.701993H81.286L73.795 25.422L66.304 0.701993H57.847L68.866 34.302H78.725ZM93.125 34.302H100.858V0.701993H93.125V34.302ZM131.74 32.886C134.233 31.574 136.321 29.6076 137.781 27.198L131.111 23.358C130.381 24.659 129.279 25.7121 127.946 26.382C126.505 27.1262 124.903 27.504 123.282 27.482C121.962 27.5449 120.643 27.3343 119.408 26.8635C118.173 26.3927 117.048 25.6718 116.105 24.746C115.195 23.7791 114.489 22.6393 114.028 21.3942C113.568 20.1492 113.362 18.8242 113.423 17.498C113.362 16.1718 113.568 14.8468 114.028 13.6017C114.489 12.3567 115.195 11.2168 116.105 10.25C117.048 9.32422 118.173 8.60333 119.408 8.13252C120.643 7.6617 121.962 7.45113 123.282 7.51399C124.893 7.49098 126.486 7.86172 127.921 8.59399C129.263 9.2718 130.373 10.3326 131.111 11.642L137.781 7.80199C136.294 5.39746 134.191 3.43378 131.691 2.11399C129.109 0.720899 126.216 0.00268346 123.282 0.0259933C113.503 -0.246007 105.485 7.71699 105.691 17.498C105.483 27.279 113.5 35.245 123.279 34.974C126.229 35.0012 129.138 34.283 131.737 32.886H131.74ZM149.621 20.958H161.703V13.658H149.618V8.09099H162.908V0.701993H141.885V34.302H163.15V26.91H149.618V20.958H149.621Z" fill="black"/>
</g>
<defs>
<clipPath id="clip0">
<rect width="163" height="35" fill="white"/>
</clipPath>
</defs>
</svg>
